Origami/16x16/apps/warzone2100.svg

<svg width="16" height="16" version="1" xmlns="http://www.w3.org/2000/svg">
 <path d="m4 8 2-3h4l2 3z" style="fill:#3f3f3f"/>
 <rect x="1" y="7" width="14" height="6" rx=".8" ry=".8" style="fill:#8e8e8e"/>
 <rect y="8" width="4" height="7" rx=".5" ry=".5" style="fill:#4f4f4f"/>
 <rect x="12" y="8" width="4" height="7" rx=".5" ry=".5" style="fill:#4f4f4f"/>
 <rect x="3" y="1" width="10" height="5" rx=".8" ry=".8" style="fill:#8e8e8e"/>
 <g style="fill:#3f3f3f">
  <rect x="4" y="2" width="1" height="1" style="fill:#3f3f3f"/>
  <rect x="6" y="2" width="1" height="1" style="fill:#3f3f3f"/>
  <rect x="9" y="2" width="1" height="1" style="fill:#3f3f3f"/>
  <rect x="11" y="2" width="1" height="1" style="fill:#3f3f3f"/>
  <rect x="11" y="4" width="1" height="1" style="fill:#3f3f3f"/>
  <rect x="9" y="4" width="1" height="1" style="fill:#3f3f3f"/>
  <rect x="6" y="4" width="1" height="1" style="fill:#3f3f3f"/>
  <rect x="4" y="4" width="1" height="1" style="fill:#3f3f3f"/>
 </g>
 <rect y="11" width="4" height="1" style="fill:#3f3f3f"/>
 <rect y="9" width="4" height="1" style="fill:#3f3f3f"/>
 <rect y="13" width="4" height="1" style="fill:#3f3f3f"/>
 <rect x="12" y="10" width="4" height="1" style="fill:#3f3f3f"/>
 <path d="m12.5 8c-0.277 0-0.5 0.223-0.5 0.5v0.5h4v-0.5c0-0.277-0.223-0.5-0.5-0.5h-3z" style="fill:#3f3f3f"/>
 <rect x="12" y="12" width="4" height="1" style="fill:#3f3f3f"/>
 <path d="m12 14v0.5c0 0.277 0.223 0.5 0.5 0.5h3c0.277 0 0.5-0.223 0.5-0.5v-0.5h-4z" style="fill:#3f3f3f"/>
</svg>

<svg xmlns="http://www.w3.org/2000/svg" width="16" height="16" version="1">
 <path style="fill:#3f3f3f" d="M 4,8 6,5 H 10 L 12,8 Z"/>
 <rect style="fill:#8e8e8e" width="14" height="6" x="1" y="7" rx=".8" ry=".8"/>
 <rect style="fill:#4f4f4f" width="4" height="7" x="0" y="8" rx=".5" ry=".5"/>
 <rect style="fill:#4f4f4f" width="4" height="7" x="12" y="8" rx=".5" ry=".5"/>
 <rect style="fill:#8e8e8e" width="10" height="5" x="3" y="1" rx=".8" ry=".8"/>
 <g style="fill:#3f3f3f">
  <rect width="1" height="1" x="4" y="2" style="fill:#3f3f3f"/>
  <rect width="1" height="1" x="6" y="2" style="fill:#3f3f3f"/>
  <rect width="1" height="1" x="9" y="2" style="fill:#3f3f3f"/>
  <rect width="1" height="1" x="11" y="2" style="fill:#3f3f3f"/>
  <rect width="1" height="1" x="11" y="4" style="fill:#3f3f3f"/>
  <rect width="1" height="1" x="9" y="4" style="fill:#3f3f3f"/>
  <rect width="1" height="1" x="6" y="4" style="fill:#3f3f3f"/>
  <rect width="1" height="1" x="4" y="4" style="fill:#3f3f3f"/>
 </g>
 <rect style="fill:#3f3f3f" width="4" height="1" x="0" y="11"/>
 <rect width="4" height="1" x="0" y="9" style="fill:#3f3f3f"/>
 <rect width="4" height="1" x="0" y="13" style="fill:#3f3f3f"/>
 <rect width="4" height="1" x="12" y="10" style="fill:#3f3f3f"/>
 <path style="fill:#3f3f3f" d="M 12.5 8 C 12.223 8 12 8.223 12 8.5 L 12 9 L 16 9 L 16 8.5 C 16 8.223 15.777 8 15.5 8 L 12.5 8 z"/>
 <rect style="fill:#3f3f3f" width="4" height="1" x="12" y="12"/>
 <path style="fill:#3f3f3f" d="M 12 14 L 12 14.5 C 12 14.777 12.223 15 12.5 15 L 15.5 15 C 15.777 15 16 14.777 16 14.5 L 16 14 L 12 14 z"/>
</svg>
